X:756
%%etbk:tnset id:485,pos:1,rep:3x,ant:
%%etbk:pldat 2015-10-17T14:20,2015-10-14T16:28,2015-10-12T18:49,2015-09-29T16:43,2015-09-10T17:02,2015-09-07T18:51,2015-09-02T17:17,2015-09-01T17:25,2015-08-31T19:13,2015-08-30T15:30,2015-08-23T15:34,2015-08-19T15:48,2015-08-18T16:26,2015-08-17T18:31,2015-06-16T17:38
T: Zig Zag Road
Z: Piano Box Version by Martin Fleischmann
H: Created 2015-06-16 /  Last Modified 2015-08-18
M: 4/4
L: 1/8
R: Reel
K: Dmaj
|: "D"!4!d3!1!A BA d2 |-dABd !1!A!3!FED | !4!d3A !2!Bc!1!de | !3!fgaf "A"!4!gf!1!e!2!c
"D"!3!d3A BA d2 |-dABd AFED | !3!FFDF !5!A3F | "A"!4!GGEG "D"!3!FED2:|
|: "bm"!2!F!4!BB!2!F !1!GB!3!d!5!f | "A"!4!edef !4!edBA | "D"!4!d3A BA d2 |-dABd AFED 
 "bm"FFBF GBdf | "A"edef edBA | "D"FEDF A3F | "A"GGEG "D"FED2:|


